src/icons/hds/some/discord.svg

<svg xmlns="http://www.w3.org/2000/svg" width="24" height="24" viewBox="0 0 24 24">
  <g fill="none" fill-rule="evenodd">
    <rect width="24" height="24"/>
    <path fill="currentColor" d="M19.0714286,3 C20.0854592,3 20.9172741,3.7835277 20.9941951,4.77790504 L21,4.92857143 L21,19.0714286 C21,20.0854592 20.2164723,20.9172741 19.222095,20.9941951 L19.0714286,21 L4.92857143,21 C3.91454082,21 3.08272595,20.2164723 3.00580487,19.222095 L3,19.0714286 L3,4.92857143 C3,3.91454082 3.7835277,3.08272595 4.77790504,3.00580487 L4.92857143,3 L19.0714286,3 Z M13.6422857,8 L13.4982857,8.16465691 L13.7210623,8.23567965 C15.3159795,8.76513652 16.0594286,9.47094262 16.0594286,9.47094262 C14.9897143,8.88465691 13.9405714,8.59665691 12.9634286,8.48351405 C12.2228571,8.40122833 11.5131429,8.42179976 10.8857143,8.50408548 L10.7982857,8.51051405 L10.7982857,8.51051405 L10.7108571,8.52465691 L10.426168,8.55886761 C10.0222583,8.61922613 9.38097355,8.75970317 8.6108077,9.07329343 L8.376,9.17265691 L8.04952381,9.32770452 L7.76914286,9.47094262 L7.85039061,9.40075835 C8.08165221,9.20988716 8.77962267,8.6928987 10.0029055,8.27237744 L10.2384413,8.19476335 L10.4742857,8.12351405 L10.3714286,8 L10.2245985,8.00492406 L10.1514589,8.01044945 C9.72555755,8.04732008 8.73678438,8.21166039 7.67997175,8.93733702 L7.48114286,9.08008548 L7.3590458,9.3195879 L7.21290353,9.63254694 C6.80463305,10.5426499 6.06767527,12.4851211 6.00436376,14.7638958 L6,15.0766569 L6.05866144,15.1653932 L6.0923509,15.2116102 C6.35578026,15.5635992 7.20294624,16.4917199 8.89034267,16.6263921 L9.13714286,16.6400855 L9.82628571,15.7863712 L9.62673626,15.7212498 C8.72658405,15.4023042 8.25849482,14.8846684 8.09490713,14.6703584 L8.02628571,14.5726569 L8.15733333,14.6564664 L8.31428571,14.747514 L8.331,14.7629426 L8.448,14.8297998 L8.70438095,14.963895 C8.87428571,15.0469426 9.04114286,15.1177998 9.19885714,15.179514 C9.62057143,15.3440855 10.1245714,15.5086569 10.7108571,15.6217998 C11.4822857,15.7657998 12.3874286,15.8172283 13.3748571,15.6320855 C13.6649143,15.582714 13.9586743,15.5111255 14.2583589,15.415098 L14.5601006,15.310842 L15.0870583,15.1020009 C15.3124389,15.0064672 15.5511497,14.8872352 15.7987474,14.7398615 L16.0491429,14.5829426 L16.0133524,14.6354653 L15.9828126,14.6763938 C15.8176372,14.8911485 15.3321502,15.4256814 14.3951688,15.742566 L14.1874286,15.8069426 L14.8662857,16.6400855 L15.1131272,16.6263921 C17.2029912,16.4596551 18.0137143,15.0766569 18.0137143,15.0766569 C18.0137143,11.7646569 16.5325714,9.08008548 16.5325714,9.08008548 C15.4691868,8.28254702 14.4429146,8.07346154 13.9485872,8.0189624 L13.7891158,8.00492406 L13.6422857,8 Z M10.0834286,11.8366569 C10.6697143,11.8366569 11.1428571,12.3509426 11.1325714,12.9783712 C11.1325714,13.6057998 10.6697143,14.1200855 10.0834286,14.1200855 C9.50742857,14.1200855 9.03428571,13.6057998 9.03428571,12.9783712 C9.03428571,12.3509426 9.49714286,11.8366569 10.0834286,11.8366569 Z M13.8377143,11.8366569 C14.424,11.8366569 14.8868571,12.3509426 14.8868571,12.9783712 C14.8868571,13.6057998 14.424,14.1200855 13.8377143,14.1200855 C13.2617143,14.1200855 12.7885714,13.6057998 12.7885714,12.9783712 C12.7885714,12.3509426 13.2514286,11.8366569 13.8377143,11.8366569 Z"/>
  </g>
</svg>

<svg viewBox="0 0 24 24" role="img" xmlns="http://www.w3.org/2000/svg"><g fill="none" fill-rule="evenodd"><path d="M0 0h24v24H0z"/><path d="M19.071 3a1.93 1.93 0 011.923 1.778l.006.15v14.143a1.93 1.93 0 01-1.778 1.923l-.15.006H4.928a1.93 1.93 0 01-1.923-1.778L3 19.072V4.928a1.93 1.93 0 011.778-1.923L4.928 3h14.143zm-5.429 5l-.144.165.223.07c1.595.53 2.338 1.236 2.338 1.236a8.385 8.385 0 00-5.173-.967l-.088.007-.087.014-.285.034a8.05 8.05 0 00-1.815.514l-.235.1-.326.155-.28.143.08-.07c.232-.191.93-.708 2.153-1.129l.235-.077.236-.071L10.371 8l-.146.005-.074.005c-.425.037-1.414.202-2.471.927l-.199.143-.122.24-.146.313c-.408.91-1.145 2.852-1.209 5.13L6 15.078l.059.088.033.047c.264.352 1.11 1.28 2.798 1.414l.247.014.69-.854-.2-.065c-.9-.319-1.369-.836-1.532-1.05l-.069-.098.131.083.157.092.017.015.117.067.256.134a8.634 8.634 0 002.006.658 7.205 7.205 0 002.665.01c.29-.05.584-.12.883-.217l.302-.104.527-.209a5.88 5.88 0 00.712-.362l.25-.157-.036.052-.03.041c-.165.215-.65.75-1.588 1.067l-.208.064.68.833.246-.014c2.09-.166 2.9-1.55 2.9-1.55 0-3.311-1.48-5.996-1.48-5.996-1.064-.797-2.09-1.007-2.584-1.061l-.16-.014L13.642 8zm-3.559 3.837c.587 0 1.06.514 1.05 1.141 0 .628-.463 1.142-1.05 1.142-.576 0-1.049-.514-1.049-1.142 0-.627.463-1.141 1.05-1.141zm3.755 0c.586 0 1.049.514 1.049 1.141 0 .628-.463 1.142-1.05 1.142-.575 0-1.048-.514-1.048-1.142 0-.627.462-1.141 1.049-1.141z" fill="currentColor"/></g></svg>
